src/pos-icons/gender-male-female-variant.svg

<svg height="24" viewBox="0 0 24 24" width="24" xmlns="http://www.w3.org/2000/svg"><path d="m7 3a5 5 0 0 0 2 4 5 5 0 0 0 -2 4 5 5 0 0 0 4 4.9v2.1h-2v2h2v2h2v-2h2v-2h-2v-2.1a5 5 0 0 0 4-4.9 5 5 0 0 0 -2-4 5 5 0 0 0 2-4h-2a3 3 0 0 1 -3 3 3 3 0 0 1 -3-3m3 5a3 3 0 0 1 3 3 3 3 0 0 1 -3 3 3 3 0 0 1 -3-3 3 3 0 0 1 3-3z"/></svg>

<?xml version="1.0" encoding="UTF-8"?><!DOCTYPE svg PUBLIC "-//W3C//DTD SVG 1.1//EN" "http://www.w3.org/Graphics/SVG/1.1/DTD/svg11.dtd"><svg xmlns="http://www.w3.org/2000/svg" xmlns:xlink="http://www.w3.org/1999/xlink" version="1.1" id="mdi-gender-male-female-variant" width="24" height="24" viewBox="0 0 24 24"><path d="M7 3A5 5 0 0 0 9 7A5 5 0 0 0 7 11A5 5 0 0 0 11 15.9V18H9V20H11V22H13V20H15V18H13V15.9A5 5 0 0 0 17 11A5 5 0 0 0 15 7A5 5 0 0 0 17 3H15A3 3 0 0 1 12 6A3 3 0 0 1 9 3M12 8A3 3 0 0 1 15 11A3 3 0 0 1 12 14A3 3 0 0 1 9 11A3 3 0 0 1 12 8Z" /></svg>
